icons/Grid_2_filled.svg

<svg width="24" height="24" viewBox="0 0 24 24" fill="none" xmlns="http://www.w3.org/2000/svg">
<path fill-rule="evenodd" clip-rule="evenodd" d="M3.25,4c0,-0.41421 0.33579,-0.75 0.75,-0.75h6.5c0.4142,0 0.75,0.33579 0.75,0.75v8.5c0,0.4142 -0.3358,0.75 -0.75,0.75h-6.5c-0.41421,0 -0.75,-0.3358 -0.75,-0.75zM3.25,15.5c0,-0.4142 0.33579,-0.75 0.75,-0.75h6.5c0.4142,0 0.75,0.3358 0.75,0.75v4.5c0,0.4142 -0.3358,0.75 -0.75,0.75h-6.5c-0.41421,0 -0.75,-0.3358 -0.75,-0.75zM20,3.25c0.4142,0 0.75,0.33579 0.75,0.75v4.5c0,0.41421 -0.3358,0.75 -0.75,0.75h-6.5c-0.4142,0 -0.75,-0.33579 -0.75,-0.75v-4.5c0,-0.41421 0.3358,-0.75 0.75,-0.75zM12.75,11.5c0,-0.4142 0.3358,-0.75 0.75,-0.75h6.5c0.4142,0 0.75,0.3358 0.75,0.75v8.5c0,0.4142 -0.3358,0.75 -0.75,0.75h-6.5c-0.4142,0 -0.75,-0.3358 -0.75,-0.75z" fill="#002B51"/>
</svg>

<svg width="24" height="24" viewBox="0 0 24 24" fill="none" xmlns="http://www.w3.org/2000/svg">
<path fill-rule="evenodd" clip-rule="evenodd" d="M3.25 4C3.25 3.58579 3.58579 3.25 4 3.25H10.5C10.9142 3.25 11.25 3.58579 11.25 4V12.5C11.25 12.9142 10.9142 13.25 10.5 13.25H4C3.58579 13.25 3.25 12.9142 3.25 12.5V4ZM3.25 15.5C3.25 15.0858 3.58579 14.75 4 14.75H10.5C10.9142 14.75 11.25 15.0858 11.25 15.5V20C11.25 20.4142 10.9142 20.75 10.5 20.75H4C3.58579 20.75 3.25 20.4142 3.25 20V15.5ZM13.5 3.25C13.0858 3.25 12.75 3.58579 12.75 4V8.5C12.75 8.91421 13.0858 9.25 13.5 9.25H20C20.4142 9.25 20.75 8.91421 20.75 8.5V4C20.75 3.58579 20.4142 3.25 20 3.25H13.5ZM12.75 11.5C12.75 11.0858 13.0858 10.75 13.5 10.75H20C20.4142 10.75 20.75 11.0858 20.75 11.5V20C20.75 20.4142 20.4142 20.75 20 20.75H13.5C13.0858 20.75 12.75 20.4142 12.75 20V11.5Z" fill="#002B51"/>
</svg>
